assets/img/braze_icons/book-open-01.svg

<svg fill="none" height="24" viewBox="0 0 24 24" width="24" xmlns="http://www.w3.org/2000/svg"><path d="m18.2211 1.99773c.206.00107.4118.00213.6174.00213.5272-.00002.982-.00004 1.3565.03057.3954.0323.7886.10361 1.167.29641.5645.28762 1.0234.74656 1.311 1.31105.1928.37838.2641.7716.2964 1.16694.0306.37457.0306.82932.0306 1.35646v8.67711c0 .5271 0 .9819-.0306 1.3565-.0323.3953-.1036.7886-.2964 1.1669-.2876.5645-.7465 1.0235-1.311 1.3111-.3784.1928-.7716.2641-1.167.2964-.669.0547-1.3464.0458-2.0208.0371-.2503-.0033-.5001-.0065-.749-.0065-1.3146 0-1.7635.0101-2.1562.1294-.3774.1146-.7285.3025-1.0331.5529-.4599.378-.7972.9151-1.1212 1.4311-.0937.1492-.1863.2967-.2805.438-.1255.1899-.3153.3363-.5444.4057-.4218.1277-.8774-.0358-1.1218-.4024-.0949-.1424-.1882-.291-.2827-.4413-.324-.516-.6613-1.0531-1.12116-1.4311-.30468-.2504-.65575-.4383-1.03312-.5529-.39272-.1193-.84164-.1294-2.15619-.1294-.24889 0-.49875.0032-.74902.0065-.67445.0087-1.35183.0176-2.02084-.0371-.39534-.0323-.78856-.1036-1.16694-.2964-.56449-.2876-1.02343-.7466-1.31105-1.3111-.19279-.3783-.26411-.7716-.29641-1.1669-.030601-.3746-.030586-.8293-.03057-1.3565v-8.67709c-.000016-.52713-.000031-.98192.03057-1.35648.0323-.39534.10362-.78856.29641-1.16694.28762-.56449.74656-1.02343 1.31105-1.31105.37838-.1928.7716-.26411 1.16694-.29641.37458-.03061.82934-.03059 1.35648-.03057.20563 0 .41148-.00106.61742-.00213.8438-.00435 1.6894-.00871 2.52976.05995.72885.05955 1.36903.18536 1.96137.48715.6835.34829 1.2742.84731 1.73 1.45502.4558-.60771 1.0465-1.10673 1.73-1.45502.5923-.30179 1.2325-.4276 1.9614-.48715.8403-.06866 1.6859-.0643 2.5297-.05995z" fill="#801ed7"/></svg>

<svg width="24" height="24" viewBox="0 0 24 24" fill="none" xmlns="http://www.w3.org/2000/svg">
<path d="M18.2211 1.99773C18.4271 1.9988 18.6329 1.99986 18.8385 1.99986C19.3657 1.99984 19.8205 1.99982 20.195 2.03043C20.5904 2.06273 20.9836 2.13404 21.362 2.32684C21.9265 2.61446 22.3854 3.0734 22.673 3.63789C22.8658 4.01627 22.9371 4.40949 22.9694 4.80483C23 5.1794 23 5.63415 23 6.16129V14.8384C23 15.3655 23 15.8203 22.9694 16.1949C22.9371 16.5902 22.8658 16.9835 22.673 17.3618C22.3854 17.9263 21.9265 18.3853 21.362 18.6729C20.9836 18.8657 20.5904 18.937 20.195 18.9693C19.526 19.024 18.8486 19.0151 18.1742 19.0064C17.9239 19.0031 17.6741 18.9999 17.4252 18.9999C16.1106 18.9999 15.6617 19.01 15.269 19.1293C14.8916 19.2439 14.5405 19.4318 14.2359 19.6822C13.776 20.0602 13.4387 20.5973 13.1147 21.1133C13.021 21.2625 12.9284 21.41 12.8342 21.5513C12.7087 21.7412 12.5189 21.8876 12.2898 21.957C11.868 22.0847 11.4124 21.9212 11.168 21.5546C11.0731 21.4122 10.9798 21.2636 10.8853 21.1133C10.5613 20.5973 10.224 20.0602 9.76414 19.6822C9.45946 19.4318 9.10839 19.2439 8.73102 19.1293C8.3383 19.01 7.88938 18.9999 6.57483 18.9999C6.32594 18.9999 6.07608 19.0031 5.82581 19.0064C5.15136 19.0151 4.47398 19.024 3.80497 18.9693C3.40963 18.937 3.01641 18.8657 2.63803 18.6729C2.07354 18.3853 1.6146 17.9263 1.32698 17.3618C1.13419 16.9835 1.06287 16.5902 1.03057 16.1949C0.999969 15.8203 0.999984 15.3656 1 14.8384V6.16131C0.999984 5.63418 0.999969 5.17939 1.03057 4.80483C1.06287 4.40949 1.13419 4.01627 1.32698 3.63789C1.6146 3.0734 2.07354 2.61446 2.63803 2.32684C3.01641 2.13404 3.40963 2.06273 3.80497 2.03043C4.17955 1.99982 4.63431 1.99984 5.16145 1.99986C5.36708 1.99986 5.57293 1.9988 5.77887 1.99773C6.62267 1.99338 7.46827 1.98902 8.30863 2.05768C9.03748 2.11723 9.67766 2.24304 10.27 2.54483C10.9535 2.89312 11.5442 3.39214 12 3.99985C12.4558 3.39214 13.0465 2.89312 13.73 2.54483C14.3223 2.24304 14.9625 2.11723 15.6914 2.05768C16.5317 1.98902 17.3773 1.99338 18.2211 1.99773Z" fill="#801ED7"/>
</svg>
